X: 13274
T: Five Of Diamonds, The
R: reel
M: 4/4
K: Amixolydian
|:c3 A EAcd|c~a3 afed|~c3 A EAcd|BGGB defd:|
|:ceef ecce|gAfA edcA|Bdde d~B3|~g3 a gfed|
ceef eAce|gAfA edcA|BddB ecdB|ecdB A3 B:|

